X:1
T:Title
%%score { ( 1 3 ) | 2 }
L:1/8
M:4/4
K:Eb
V:1 treble nm="Grand Piano"
V:3 treble 
V:2 bass 
V:1
 z4 z2[Q:1/4=94] EF | GGGG AGFE | [GB][GB][GB][GB] [Ac][GB][EG][GB] | [Ge][Ge][Ae][Ac] [GB]GFE | %4
[M:3/4] [DF]6 |[M:1/4] EF |[M:4/4] GGGG AGFE | [GB][GB][GB][GB] [Ac][GB][EG][GB] | %8
 [Ge][Ge]ec B<G [DF][DG] |[M:7/8] [B,E]-[B,E]-[B,E]- [B,E]3 z |[M:1/8] [GB] |[M:4/4] z4 [GB]4 | %12
[M:7/8] z z z2 [Ac]3 |[M:1/8] c |[M:4/4] c<[ce] [ce][Ac] [GB]GEF |[M:7/8] G<GF E [DF]3 | %16
[M:1/4] EF |[M:4/4] GGGG AGFE | [GB][GB][GB][GB] [Ac][GB][EG][GB] | [Ge][Ge]ec B<G [DF][DG] | %20
[M:15/8] [B,E]6 z3 z6 |] %21
V:2
 z4 z2 [E,G,B,][E,A,B,] | [E,B,E][E,B,E][E,B,E][E,B,E] [E,CE][E,B,E][E,A,D][E,G,] | %2
 [E,E][E,E][E,E][E,E] [E,E][E,E][E,B,][E,E] | [E,B,][E,B,][A,C][A,E] [E,E][E,B,E][D,B,][C,=A,C] | %4
[M:3/4] [B,,B,]6 |[M:1/4] [E,G,B,][E,A,B,] | %6
[M:4/4] [E,B,E][E,B,E][E,B,E][E,B,E] [E,CE][E,B,E][E,A,D][E,G,] | %7
 [E,E][E,E][E,E][E,E] [E,E][E,E][E,B,][E,E] | %8
 [E,B,][E,B,][K:treble][A,CA][A,EA] [B,EG]<[K:bass][B,E] [B,,A,][B,,B,] | %9
[M:7/8] [E,G,]-[E,G,]-[E,G,]- [E,G,]3 z |[M:1/8] [E,E] | %11
[M:4/4] [E,E]<[E,E] [E,E]>[E,B,] [E,E]/E,/E,/E,/- E,E, |[M:7/8] A,<A,A,>A,A,/A,/ A,<A, | %13
[M:1/8][K:treble] [A,EA] |[M:4/4] [A,EA]<[A,E] [A,E][A,E][K:bass] [E,E][E,B,E][E,G,B,][E,A,B,] | %15
[M:7/8] [E,B,E]<[E,B,E][D,B,] [C,=A,C] [B,,B,]3 |[M:1/4] [E,G,B,][E,A,B,] | %17
[M:4/4] [E,B,E][E,B,E][E,B,E][E,B,E] [E,CE][E,B,E][E,A,D][E,G,] | %18
 [E,E][E,E][E,E][E,E] [E,E][E,E][E,B,][E,E] | %19
 [E,B,][E,B,][K:treble][A,CA][A,EA] [B,EG]<[K:bass][B,E] [B,,A,][B,,B,] |[M:15/8] [E,G,]6 z3 z6 |] %21
V:3
 x8 | x8 | x8 | x8 |[M:3/4] x6 |[M:1/4] x2 |[M:4/4] x8 | x8 | x8 |[M:7/8] x7 |[M:1/8] x | %11
[M:4/4] [GB]<[GB] [GB]>[EG] z/ E/E/E/- E[EGB] |[M:7/8] [EAc]<[EAc][CAc]>[EA]E/E/ E<E |[M:1/8] x | %14
[M:4/4] x8 |[M:7/8] x7 |[M:1/4] x2 |[M:4/4] x8 | x8 | x8 |[M:15/8] x15 |] %21

